assets/Mammoth/Flat/mammoth_flat.svg

<svg xmlns="http://www.w3.org/2000/svg" width="32" height="32" fill="none"><path fill="#6D4534" d="M16 23h5v6.06c0 .52-.42.94-.94.94h-3.12c-.52 0-.94-.42-.94-.94V23ZM22.51 23.25 22 23h7v6.06c0 .52-.42.94-.94.94h-3.12c-.52 0-.94-.42-.94-.94v-3.39c0-1.03-.57-1.96-1.49-2.42Z"/><path fill="#A56953" d="M21.25 7c-.83 0-1.59-.42-2.07-1.09A4.49 4.49 0 0 0 15.5 4c-1.52 0-2.86.75-3.68 1.91l-.01.01c-.45.63-1.31.8-1.97.41l-2.9-1.67a.383.383 0 0 0-.58.31c-.04.67.18 1.32.6 1.82.07.08.01.21-.1.21H4.63c-.19 0-.35.16-.35.35 0 .16.04.31.13.44.25.4.6.71 1 .92-.87.94-1.41 2.21-1.41 3.6V24c0 1.66 1.34 3 3 3h.5c.83 0 1.5-.67 1.5-1.5S8.33 24 7.5 24h-.17c-.18 0-.33-.15-.33-.33v-3.29c0-.21.17-.38.38-.38h1.37c.77 0 1.52.3 2.07.85l.29.28c.57.56.89 1.32.89 2.11 0 .49-.15.98-.42 1.39L9.3 28.06c-.56.83.04 1.94 1.04 1.94h2.39c.79 0 1.51-.42 1.9-1.1l3.1-5.43c.17-.29.48-.47.81-.47h3.89c.37 0 .74.09 1.07.25a2.69 2.69 0 0 1 1.49 2.42v3.39c0 .52.42.94.94.94h3.12c.52 0 .94-.42.94-.94V15.75C30 10.92 26.08 7 21.25 7Z"/><path fill="#1C1C1C" d="M8.5 12.5a.5.5 0 0 1 .5.5v1a.5.5 0 0 1-1 0v-1a.5.5 0 0 1 .5-.5Z"/><path fill="#6D4534" d="M14.13 7c2.1 0 3.8 1.67 3.87 3.75 0 1.45-.66 2.83-1.78 3.76l-2.62 2.14c-.61.56-1.6.13-1.6-.7V7.69c0-.38.31-.69.69-.69h1.44ZM8.1 18.26h1.97c.17 0 .3-.13.31-.3v-1.05c0-.71-.58-1.29-1.29-1.29-.71 0-1.29.58-1.29 1.29v1.05c0 .17.13.3.3.3Z"/><path fill="#FFDEA7" d="M8.08 18.26c0 1.13-.92 2.04-2.04 2.04-1.12.01-2.04-.91-2.04-2.04v-.86c0-.86-.2-1.7-.58-2.46l-.25-.49a.61.61 0 0 0-.55-.34c-.34 0-.62.27-.62.61v3.54c0 2.23 1.81 4.04 4.04 4.04s4.04-1.81 4.04-4.04h-2Z"/></svg>

<svg width="32" height="32" viewBox="0 0 32 32" fill="none" xmlns="http://www.w3.org/2000/svg">
<path d="M16 23H21V29.06C21 29.58 20.58 30 20.06 30H16.94C16.42 30 16 29.58 16 29.06V23Z" fill="#6D4534"/>
<path d="M22.51 23.25L22 23H29V29.06C29 29.58 28.58 30 28.06 30H24.94C24.42 30 24 29.58 24 29.06V25.67C24 24.64 23.43 23.71 22.51 23.25Z" fill="#6D4534"/>
<path d="M21.25 7C20.42 7 19.66 6.58 19.18 5.91C18.36 4.75 17.02 4 15.5 4C13.98 4 12.64 4.75 11.82 5.91L11.81 5.92C11.36 6.55 10.5 6.72 9.84 6.33L6.94 4.66C6.69 4.51 6.38 4.68 6.36 4.97C6.32 5.64 6.54 6.29 6.96 6.79C7.03 6.87 6.97 7 6.86 7H4.63C4.44 7 4.28 7.16 4.28 7.35C4.28 7.51 4.32 7.66 4.41 7.79C4.66 8.19 5.01 8.5 5.41 8.71C4.54 9.65 4 10.92 4 12.31V24C4 25.66 5.34 27 7 27H7.5C8.33 27 9 26.33 9 25.5C9 24.67 8.33 24 7.5 24H7.33C7.15 24 7 23.85 7 23.67V20.38C7 20.17 7.17 20 7.38 20H8.75C9.52 20 10.27 20.3 10.82 20.85L11.11 21.13C11.68 21.69 12 22.45 12 23.24C12 23.73 11.85 24.22 11.58 24.63L9.3 28.06C8.74 28.89 9.34 30 10.34 30H12.73C13.52 30 14.24 29.58 14.63 28.9L17.73 23.47C17.9 23.18 18.21 23 18.54 23H22.43C22.8 23 23.17 23.09 23.5 23.25C24.42 23.71 24.99 24.64 24.99 25.67V29.06C24.99 29.58 25.41 30 25.93 30H29.05C29.57 30 29.99 29.58 29.99 29.06V15.75C30 10.92 26.08 7 21.25 7Z" fill="#A56953"/>
<path d="M8.5 12.5C8.77614 12.5 9 12.7239 9 13V14C9 14.2761 8.77614 14.5 8.5 14.5C8.22386 14.5 8 14.2761 8 14V13C8 12.7239 8.22386 12.5 8.5 12.5Z" fill="#1C1C1C"/>
<path d="M14.13 7C16.23 7 17.93 8.67 18 10.75C18 12.2 17.34 13.58 16.22 14.51L13.6 16.65C12.99 17.21 12 16.78 12 15.95V7.69C12 7.31 12.31 7 12.69 7H14.13Z" fill="#6D4534"/>
<path d="M8.09999 18.26H10.07C10.24 18.26 10.37 18.13 10.38 17.96V16.91C10.38 16.2 9.79999 15.62 9.08999 15.62C8.37999 15.62 7.79999 16.2 7.79999 16.91V17.96C7.79999 18.13 7.92999 18.26 8.09999 18.26Z" fill="#6D4534"/>
<path d="M8.08 18.26C8.08 19.39 7.16 20.3 6.04 20.3C4.92 20.31 4 19.39 4 18.26V17.4C4 16.54 3.8 15.7 3.42 14.94L3.17 14.45C3.07 14.24 2.85 14.11 2.62 14.11C2.28 14.11 2 14.38 2 14.72V18.26C2 20.49 3.81 22.3 6.04 22.3C8.27 22.3 10.08 20.49 10.08 18.26H8.08Z" fill="#FFDEA7"/>
</svg>
